flaticon/arrows/forward.svg

<svg xmlns="http://www.w3.org/2000/svg" width="32" height="32" viewBox="0 0 24 24">
    <path d="M 18.226562 2.765625 L 0 2.765625 L 0 21.234375 L 18.226562 21.234375 L 24 12 Z M 17.625 20.148438 L 1.085938 20.148438 L 1.085938 3.851562 L 17.625 3.851562 L 22.71875 12 Z M 17.625 20.148438"/>
    <path d="M 13.738281 7.269531 L 9.777344 11.230469 L 5.816406 7.269531 L 5.046875 8.039062 L 9.011719 12 L 5.046875 15.960938 L 5.816406 16.730469 L 9.777344 12.769531 L 13.738281 16.730469 L 14.507812 15.960938 L 10.546875 12 L 14.507812 8.039062 Z M 13.738281 7.269531"/>
</svg>

<svg xmlns="http://www.w3.org/2000/svg" width="32" height="32" viewBox="0 0 24 24">
    <path d="M18.227 2.766H0v18.468h18.227L24 12zm-.602 17.382H1.085V3.852h16.54L22.719 12zm0 0"/>
    <path d="M13.738 7.27l-3.96 3.96-3.962-3.96-.77.77L9.013 12l-3.965 3.96.77.77 3.96-3.96 3.961 3.96.77-.77L10.547 12l3.96-3.96zm0 0"/>
</svg>
